!!!COM: Anonymous
!!!OTL@@POL: Witaj Jezu ukochany
!!!TXO: Polish
!!!ODT: 
!!!GTL: Hymnbook L 1642(a)
!!!ARL: Biblioteka Diecezjalna w Sandomierzu 
!!!voices:	3
**kern	**text	**kern	**text	**kern	**text
*staff3	*staff3	*staff2	*staff2	*staff1	*staff1
*I"Basso	*	*I"Canto II	*	*I"Canto I	*
=1-	=1-	=1-	=1-	=1-	=1-
*clefF4	*	*clefG2	*	*clefG2	*
*k[b-]	*	*k[b-]	*	*k[b-]	*
*met(c|)	*	*met(c|)	*	*met(c|)	*
*M2/2	*	*M2/2	*	*M2/2	*
2GG/	Wi-	2b-\	Wi-	2dd\	Wi-
2GG/	-taj	2b-\	-taj	2dd\	-taj
=2	=2	=2	=2	=2	=2
2GG/	Je-	2dd\	Je-	2b-\	Je-
2D\	-zu	2dd\	-zu	2a/	-zu
=3	=3	=3	=3	=3	=3
2G\	u-	2dd\	u-	2b-\	u-
2G\	-ko-	2dd\	-ko-	2b-\	-ko-
=4	=4	=4	=4	=4	=4
1F	-cha-	1cc	-cha-	1a	-cha-
=5	=5	=5	=5	=5	=5
1BB-	-ny	1b-	-ny	1b-	-ny
=6	=6	=6	=6	=6	=6
2GG/	Na	2b-\	Na	2dd\	Na
2GG/	zba-	2b-\	zba-	2dd\	zba-
=7	=7	=7	=7	=7	=7
2GG/	-wie-	2b-\	-wie-	4b-\	-wie-
.	.	.	.	4cc\	.
2D\	-nie	2a/	-nie	2dd\	-nie
=8	=8	=8	=8	=8	=8
2G\	na-	2b-\	na-	2dd\	na-
2G\	-sze	2b-\	-sze	2b-\	-sze
=9	=9	=9	=9	=9	=9
1F	da-	1a	da-	1cc	da-
=10	=10	=10	=10	=10	=10
1BB-	-ny	1b-	-ny	1b-	-ny
=11	=11	=11	=11	=11	=11
=	=	=	=	=	=
4G\	Wi-	4g/	Wi-	4b-\	Wi-
4G\	-taj	4g/	-taj	4b-\	-taj
4F\	mi-	4a/	mi-	4cc\	mi-
4F\	-łe	4a/	-łe	4cc\	-łe
=12	=12	=12	=12	=12	=12
4BB-/	dzie-	4b-\	dzie-	4dd\	dzie-
4BB-/	-cią-	4b-\	-cią-	4dd\	-cią-
4F\	-te-	4a/	-te-	4cc\	-te-
4F\	-czko	4a/	-czko	4cc\	-czko
=13	=13	=13	=13	=13	=13
4G\	wi-	4g/	wi-	4b-\	wi-
4G\	-taj	4g/	-taj	4b-\	-taj
4F\	śli-	4a/	śli-	4cc\	śli-
4F\	-czne	4a/	-czne	4cc\	-czne
=14	=14	=14	=14	=14	=14
4BB-/	pa-	4b-\	pa-	4dd\	pa-
4BB-/	-nią-	4b-\	-nią-	4dd\	-nią-
4F\	-te-	4a/	-te-	4cc\	-te-
4F\	-czko	4a/	-czko	4cc\	-czko
=15	=15	=15	=15	=15	=15
2G\	pa-	2g/	pa-	2b-\	pa-
2C/	-nią-	2g/	-nią-	2cc\	-nią-
=16	=16	=16	=16	=16	=16
1D	-te-	1f#	-te-	1a	-te-
=17	=17	=17	=17	=17	=17
[1GG	-czko.	[1g	-czko.	[1g	-czko.
=18	=18	=18	=18	=18	=18
1GG]	.	1g]	.	1g]	.
==:|!	==:|!	==:|!	==:|!	==:|!	==:|!
*-	*-	*-	*-	*-	*-
!!!GTL: Hymnbook L 1642(a)
!!!EFL: 29/34
!!!YEM: Creative Commons CC/BY/NC/SA 4.0
!!!ENC: Marcin Konik
!!!END: 2015-01-19 
!!!EED: Marcin Konik
!!!EEV: 
!!!ONB: Translated from MusicXML and edited by Marcin Konik
!!!CharacterEncoding: utf-8
!!!RDF**kern: i=editorial accidental
!!muse2ps: z14jc180F
!!title: @{OTL}, @{GTL}: @{pag}, ed. @{ENC}
